X:47
% %NRChange 2014-04-14
T:Masurka
C:etter Svein P. Eikeland
R:Mazurka
Z:From Geitungen - Langt Ute
M:3/4
L:1/8
K:Em
%P:A
"Em"f>e e2B2 | "G"d>^c B2B2 | "D"d>^c B>A G>F|E>G B2B2|
"Em"f>e e2B2 | "G"d>^c B2B2 | "D"d>^c B>A G>F|E2 E4 :|
%P:B
"A (G)"G2 B>G B2 |"G"E>G B>G B2|"D"D>F A>G G>F|D>F A2A2|
"G"G2 B>G B2|"Em" E>G B>G B2 |"D"D>F A>G G>F|D2 D4 :|

